svgs/sharp-regular/square-m.svg

<svg xmlns="http://www.w3.org/2000/svg" viewBox="0 0 448 512"><!--! Font Awesome Pro 6.6.0 by @fontawesome - https://fontawesome.com License - https://fontawesome.com/license (Commercial License) Copyright 2024 Fonticons, Inc. --><path d="M48 80l0 352 352 0 0-352L48 80zM0 32l48 0 352 0 48 0 0 48 0 352 0 48-48 0L48 480 0 480l0-48L0 80 0 32zM96 152l0-24 36.3 0 7.2 9.9L224 255l84.5-117.1 7.2-9.9 36.3 0 0 24 0 208 0 24-48 0 0-24 0-133.8-60.5 83.8L224 337l-19.5-26.9L144 226.2 144 360l0 24-48 0 0-24 0-208z"/></svg>

<svg xmlns="http://www.w3.org/2000/svg" viewBox="0 0 448 512"><!--! Font Awesome Pro 6.4.2 by @fontawesome - https://fontawesome.com License - https://fontawesome.com/license (Commercial License) Copyright 2023 Fonticons, Inc. --><path d="M48 80V432H400V80H48zM0 32H48 400h48V80 432v48H400 48 0V432 80 32zM96 152V128h36.3l7.2 9.9L224 255l84.5-117.1 7.2-9.9H352v24V360v24H304V360 226.2l-60.5 83.8L224 337l-19.5-26.9L144 226.2V360v24H96V360 152z"/></svg>
